X:1143
M:2/4
L:1/16
Q:1/4=104
K:D
f2fg f2e2|d2de d2c2|B2Bd A2d2|fdaf f2e2|
f2fg f2e2|d2de d2c2|BcdB e2f2|d8      :|

